X:1
T:Title
%%score 1 2 3
L:1/8
M:3/2
K:C
V:1 treble nm="Part_1"
V:2 treble-8 nm="Part_2"
V:3 treble-8 nm="Part_3"
V:1
 F6 F2 E2 D2 | F4 G4 G4- | G2 F2 G2 A2 F2 E2 | G6 E2 F2 G2 | A2 G4 F2 E3 D | F4 z4 F4 | %6
 F2 G2 A2 G4 ^F2 | G4 _B8 | A4 G6 F2 | F6 E2 E2 D2 | F4 z4 F4 | F4 G4 E2 D2 | F4 z2 F2 G2 A2 | %13
 _B2 A2 F2 G2 F2 E2 | G4 G4 G4 | A4 G4 F2 E2 | C6 B,2 B,2 A,2 | C4 z4 C4 | D6 F2 E2 D2 | F4 z4 G4 | %20
 G4 F4 E4 | G4 G4 A4- | A2 G2 _B2 A2 G2 F2 | F6 E2 E2 D2 | F12 |] %25
V:2
 c6 c2 B2 A2 | c4 d4 d4- | d2 c2 d2 e2 c2 B2 | d6 B2 c2 d2 | e2 d4 c2 B3 A | c4 z4 c4 | %6
 c2 d2 e2 d4 ^c2 | d4 f8 | e4 d6 c2 | c6 B2 B2 A2 | c4 z4 c4 | c4 d4 B2 A2 | c4 z2 c2 d2 e2 | %13
 f2 e2 c2 d2 c2 B2 | d4 d4 d4 | e4 d4 c2 B2 | G6 ^F2 F2 E2 | G4 z4 G4 | A6 c2 B2 A2 | c4 z4 d4 | %20
 d4 c4 B4 | d4 d4 e4- | e2 d2 f2 e2 d2 c2 | c6 B2 B2 A2 | c12 |] %25
V:3
[K:F] F4 A4 G4 | F4 B4 G4 | B2 A2 B2 c2 A4 | G8 A2 B2 | c2 B4 A2 G4 | F8 A4- | A2 B2 c2 B2 A4 | %7
 G4 d8 | c4 B8 | A4 G8 | F8 A4 | F2 A2 B4 G4 | F4 A4 B2 c2 | d2 c2 A8 | G6 B4 G2 | c2 A2 B4 A2 G2 | %16
 E4 D8 | C4 z4 E4 | D4 F2 A2 G4 | F8 B4 | G4 A4 G4 | G4 B4 c4 | A2 B2 G2 A2 B2 A2 | F4 A4 G4 | %24
 F12 |] %25

